X: 7
T: Governor King's March  v.1
P: piffero primo b0029
O: Howe
%R: march
F: http://ancients.sudburymuster.org/mus/ssp/pdf/belleisleF.pdf
Z: 2019 John Chambers <jc:trillian.mit.edu>
M: 2/4
L: 1/16
K: D
D3F |\
A4 A3A A4 GFED | B4 B3B B3cd3B |\
B2A2F2A2 A2G2G2F2 | E4 E3E E4 D3F |\
A4 A3A A4 GFED | B4 B3B B3cd3B |
B3AF3A A3GF3E | D4 d3d d4 :: A2A2 |\
d2AA A2A2 e2AA A2A2 | d2AA e2AA f2AA A2A2 |\
g2AA A2A2 f2AA A2A2 |
(ef)(ed) (cd)(cB) (AB)(AG) (3(FED) (3(EFG) |\
A4 A3A A4 GFED | B4 B3B B3cd3B |\
B3AF3A A3GF3E | D4 d3d d4 :|


